swiss/communes/0249.svg

<?xml version="1.0" encoding="UTF-8" standalone="no"?>
<!-- Created with Inkscape (http://www.inkscape.org/) -->
<svg
   xmlns:svg="http://www.w3.org/2000/svg"
   xmlns="http://www.w3.org/2000/svg"
   xmlns:xlink="http://www.w3.org/1999/xlink"
   version="1.0"
   width="231.51285"
   height="271.18127"
   id="svg2780">
  <defs
     id="defs2782" />
  <g
     transform="translate(-18.714025,-799.30667)"
     id="layer1">
    <path
       d="M 19.714025,800.30667 L 23.886982,975.58748 C 26.867657,1100.7881 242.07324,1100.7881 245.05392,975.58748 L 249.22688,800.30667 L 19.714025,800.30667 z"
       id="path3282"
       style="fill:#cb3e28;fill-opacity:1;fill-rule:evenodd;stroke:#000000;stroke-width:2;stroke-linecap:butt;stroke-miterlimit:4;stroke-dashoffset:0;stroke-opacity:1" />
    <g
       transform="matrix(1.2888902,0,0,1.2886735,-6.8712861,-243.77881)"
       id="g2731"
       style="fill:#ffffff;stroke:#000000;stroke-width:0.97105801;stroke-opacity:1">
      <path
         d="M 115.69681,938.72557 C 113.18798,906.58831 101.39265,865.1281 79.31767,840.82009 C 78.497179,839.9166 77.498189,839.87225 76.730078,840.82009 C 53.159463,869.90583 44.426967,902.04295 40.350943,938.72557 C 65.700111,949.56058 90.278489,947.43425 115.69681,938.72557 z"
         id="path4911"
         style="fill:#ffffff;fill-opacity:1;fill-rule:evenodd;stroke:#000000;stroke-width:0.77592653px;stroke-linecap:butt;stroke-linejoin:round;stroke-opacity:1" />
      <path
         d="M 40.45406,934.59121 C 65.807858,946.39648 91.071906,945.78153 116.39837,934.58905"
         id="path4823"
         style="fill:#ffffff;fill-opacity:1;fill-rule:evenodd;stroke:#000000;stroke-width:0.77592653px;stroke-linecap:butt;stroke-linejoin:round;stroke-opacity:1" />
      <path
         d="M 62.457022,974.66746 L 78.305517,978.29894 L 94.313501,974.66746 C 95.034154,946.48552 92.85769,917.19785 80.557737,891.42461 C 79.540337,889.29278 77.24902,889.30198 76.212787,891.42461 C 63.623591,917.21249 62.205787,946.48061 62.457022,974.66746 z"
         id="path4396"
         style="fill:#ffffff;fill-opacity:1;fill-rule:evenodd;stroke:#000000;stroke-width:0.77592653px;stroke-linecap:butt;stroke-linejoin:miter;stroke-opacity:1" />
      <path
         d="M 61.128813,944.78069 L 59.104225,972.07021 L 72.224536,963.77951 L 72.371383,940.87312 C 69.80232,941.2269 63.055617,942.68219 61.128813,944.78069 z"
         id="path4924"
         style="fill:#ffffff;fill-opacity:1;fill-rule:evenodd;stroke:#000000;stroke-width:0.77531558;stroke-linecap:butt;stroke-linejoin:round;stroke-miterlimit:4;stroke-dasharray:none;stroke-opacity:1" />
      <use
         transform="matrix(-1,0,0,1,156.86832,-3.5197119e-6)"
         id="use4380"
         style="fill:#ffffff;fill-opacity:1;stroke:#000000;stroke-width:1.27686584;stroke-opacity:1"
         x="0"
         y="0"
         width="248.03149"
         height="248.03149"
         xlink:href="#path4924" />
      <path
         d="M 78.43416,975.97278 C 85.239498,975.97278 92.442286,974.19293 92.442286,970.97969 C 92.442286,968.60354 87.175678,967.12453 83.138775,966.02264 L 84.643785,963.77951 C 90.374755,964.43494 97.764098,968.15549 97.764098,972.44426 C 97.764098,976.8214 88.765063,980.26812 78.43416,980.26812 C 68.103258,980.26812 59.10422,976.8214 59.10422,972.44426 C 59.10422,968.15549 66.493566,964.43494 72.224536,963.77951 L 73.72954,966.02264 C 69.692637,967.12453 64.426029,968.60354 64.426029,970.97969 C 64.426029,974.19293 71.628817,975.97278 78.43416,975.97278 z"
         id="path4918"
         style="fill:#ffffff;fill-opacity:1;fill-rule:evenodd;stroke:#000000;stroke-width:0.77531558;stroke-linecap:butt;stroke-linejoin:round;stroke-miterlimit:4;stroke-dasharray:none;stroke-opacity:1" />
      <path
         d="M 72.371377,940.87312 L 73.729534,943.5791 L 73.729534,966.02264 L 72.371377,963.31666 L 72.371377,940.87312 z"
         id="rect4377"
         style="color:#000000;fill:#ffffff;fill-opacity:1;fill-rule:evenodd;stroke:#000000;stroke-width:0.77531558;stroke-linecap:butt;stroke-linejoin:round;marker:none;marker-start:none;marker-mid:none;marker-end:none;stroke-miterlimit:4;stroke-dashoffset:0;stroke-opacity:1;visibility:visible;display:inline;overflow:visible;enable-background:accumulate" />
      <use
         transform="matrix(-1,0,0,1,156.86833,-4.8471482e-6)"
         id="use4382"
         style="fill:#ffffff;fill-opacity:1;stroke:#000000;stroke-width:1.27686584;stroke-opacity:1"
         x="0"
         y="0"
         width="248.03149"
         height="248.03149"
         xlink:href="#rect4377" />
    </g>
    <g
       transform="matrix(1.0684601,0,0,1.0684601,-215.48909,-62.651214)"
       id="g4418">
      <path
         d="M 365.20627,1001.555 C 365.0985,1005.3763 368.30307,1010.4077 374.37146,1010.4077 C 380.43856,1010.4077 383.64442,1005.3763 383.53665,1001.555 L 381.91571,944.08222 L 366.82719,944.08222 L 365.20627,1001.555 z"
         id="path4409"
         style="fill:#ffef00;fill-opacity:1;fill-rule:evenodd;stroke:#000000;stroke-width:0.93592638px;stroke-linecap:butt;stroke-linejoin:miter;stroke-opacity:1" />
      <path
         d="M 375.81777,140.69655 L 364.06008,125.40292 C 378.31485,96.193978 371.4065,52.791385 330.84682,56.844667 C 380.84168,7.1005484 453.04308,58.53849 375.81777,140.69655 z"
         transform="translate(0,804.33069)"
         id="path4416"
         style="fill:#ffffff;fill-opacity:1;fill-rule:evenodd;stroke:#000000;stroke-width:0.93518943;stroke-linecap:butt;stroke-linejoin:round;stroke-miterlimit:4;stroke-dasharray:none;stroke-opacity:1" />
      <rect
         width="25.061953"
         height="10.598338"
         rx="4.9596319"
         ry="4.9596319"
         x="361.84048"
         y="937.51123"
         id="rect4414"
         style="opacity:1;color:#000000;fill:#ffef00;fill-opacity:1;fill-rule:evenodd;stroke:#000000;stroke-width:0.9359265px;stroke-linecap:butt;stroke-linejoin:miter;marker:none;marker-start:none;marker-mid:none;marker-end:none;stroke-miterlimit:4;stroke-dasharray:none;stroke-dashoffset:0;stroke-opacity:1;visibility:visible;display:inline;overflow:visible;enable-background:accumulate" />
    </g>
  </g>
</svg>

<svg xmlns="http://www.w3.org/2000/svg" xmlns:xlink="http://www.w3.org/1999/xlink" version="1.0" width="231.513" height="271.181"><path d="m19.714 800.307 4.173 175.28c2.98 125.201 218.186 125.201 221.167 0l4.173-175.28H19.714z" style="fill:#cb3e28;fill-opacity:1;fill-rule:evenodd;stroke:#000;stroke-width:2;stroke-linecap:butt;stroke-miterlimit:4;stroke-dashoffset:0;stroke-opacity:1" transform="translate(-18.714 -799.307)"/><g transform="matrix(1.28889 0 0 1.28867 -25.585 -1043.085)" style="fill:#fff;stroke:#000;stroke-width:.97105801;stroke-opacity:1"><path d="M115.697 938.726c-2.509-32.138-14.304-73.598-36.38-97.906-.82-.903-1.819-.948-2.587 0-23.57 29.086-32.303 61.223-36.38 97.906 25.35 10.835 49.928 8.708 75.347 0z" style="fill:#fff;fill-opacity:1;fill-rule:evenodd;stroke:#000;stroke-width:.77592653px;stroke-linecap:butt;stroke-linejoin:round;stroke-opacity:1"/><path d="M40.454 934.591c25.354 11.805 50.618 11.19 75.944-.002" style="fill:#fff;fill-opacity:1;fill-rule:evenodd;stroke:#000;stroke-width:.77592653px;stroke-linecap:butt;stroke-linejoin:round;stroke-opacity:1"/><path d="m62.457 974.667 15.849 3.632 16.008-3.632c.72-28.181-1.456-57.47-13.756-83.242-1.018-2.132-3.309-2.123-4.345 0-12.59 25.787-14.007 55.056-13.756 83.242z" style="fill:#fff;fill-opacity:1;fill-rule:evenodd;stroke:#000;stroke-width:.77592653px;stroke-linecap:butt;stroke-linejoin:miter;stroke-opacity:1"/><path d="m61.129 944.78-2.025 27.29 13.12-8.29.147-22.907c-2.569.354-9.315 1.81-11.242 3.908z" id="a" style="fill:#fff;fill-opacity:1;fill-rule:evenodd;stroke:#000;stroke-width:.77531558;stroke-linecap:butt;stroke-linejoin:round;stroke-miterlimit:4;stroke-dasharray:none;stroke-opacity:1"/><use transform="matrix(-1 0 0 1 156.868 0)" style="fill:#fff;fill-opacity:1;stroke:#000;stroke-width:1.27686584;stroke-opacity:1" width="248.031" height="248.031" xlink:href="#a"/><path d="M78.434 975.973c6.805 0 14.008-1.78 14.008-4.993 0-2.376-5.266-3.855-9.303-4.957l1.505-2.243c5.73.655 13.12 4.375 13.12 8.664 0 4.377-8.999 7.824-19.33 7.824-10.33 0-19.33-3.447-19.33-7.824 0-4.289 7.39-8.01 13.12-8.664l1.506 2.243c-4.037 1.102-9.304 2.58-9.304 4.957 0 3.213 7.203 4.993 14.008 4.993z" style="fill:#fff;fill-opacity:1;fill-rule:evenodd;stroke:#000;stroke-width:.77531558;stroke-linecap:butt;stroke-linejoin:round;stroke-miterlimit:4;stroke-dasharray:none;stroke-opacity:1"/><path d="m72.371 940.873 1.359 2.706v22.444l-1.359-2.706v-22.444z" id="b" style="color:#000;fill:#fff;fill-opacity:1;fill-rule:evenodd;stroke:#000;stroke-width:.77531558;stroke-linecap:butt;stroke-linejoin:round;marker:none;marker-start:none;marker-mid:none;marker-end:none;stroke-miterlimit:4;stroke-dashoffset:0;stroke-opacity:1;visibility:visible;display:inline;overflow:visible;enable-background:accumulate"/><use transform="matrix(-1 0 0 1 156.868 0)" style="fill:#fff;fill-opacity:1;stroke:#000;stroke-width:1.27686584;stroke-opacity:1" width="248.031" height="248.031" xlink:href="#b"/></g><g transform="translate(-234.203 -861.958) scale(1.06846)"><path d="M365.206 1001.555c-.108 3.821 3.097 8.853 9.165 8.853s9.273-5.032 9.166-8.853l-1.621-57.473h-15.089l-1.62 57.473z" style="fill:#ffef00;fill-opacity:1;fill-rule:evenodd;stroke:#000;stroke-width:.93592638px;stroke-linecap:butt;stroke-linejoin:miter;stroke-opacity:1"/><path d="m375.818 140.697-11.758-15.294c14.255-29.209 7.346-72.612-33.213-68.558 49.995-49.744 122.196 1.693 44.97 83.852z" transform="translate(0 804.33)" style="fill:#fff;fill-opacity:1;fill-rule:evenodd;stroke:#000;stroke-width:.93518943;stroke-linecap:butt;stroke-linejoin:round;stroke-miterlimit:4;stroke-dasharray:none;stroke-opacity:1"/><rect width="25.062" height="10.598" rx="4.96" ry="4.96" x="361.84" y="937.511" style="opacity:1;color:#000;fill:#ffef00;fill-opacity:1;fill-rule:evenodd;stroke:#000;stroke-width:.9359265px;stroke-linecap:butt;stroke-linejoin:miter;marker:none;marker-start:none;marker-mid:none;marker-end:none;stroke-miterlimit:4;stroke-dasharray:none;stroke-dashoffset:0;stroke-opacity:1;visibility:visible;display:inline;overflow:visible;enable-background:accumulate"/></g></svg>
